X:177
T:RVW2/2/177 Banks of Invary
C:Mr. Baker (Snr.), Forest Green, Surrey, 21 December 1904
L:1/4
Q:1/4=120
M:4/4
I:linebreak $
K:G
"^(Editorial suggestion)  " D | G3/2 A/ G E | E D D G | A A A/B/ c | B3 B |$ G B d e/d/ | d G G A | 
B B c A | G3 B/c/ |$ d d B/c/ d | d e/d/ d d | e d c B | B2"^(a)" B D |$ G3/2 A/ G A | B E D G | 
A3/2 B/ c/B/ A | G2 z ||$ D | G3/2 A/ G E | E D D G | A A A/B/ c | B3 B |$ G B d e/d/ | d G G A | 
B B c A | G3 B/c/ |$ d d B/c/ d | d e/d/ d d | e d c B | B2"^(a) var." A D |$ G3/2 A/ G A | 
B E D G | A3/2 B/ c/B/ A | G2 z |] 



